X: 41262
T: Tubber Fair
R: jig
M: 6/8
K: Gmajor
|BGA B2d|gef ged|B2B AGA|BGE EGA|
BGA B2d|gef ged|(3Bcd B AGA|BGF G2A|
BGA B2d|gef ged|(3Bcd B AGA|BGE E2F|
GEG FEF|EFG B^cd|edB AGA|BGF GBd||
gba ged|B2d def|gfe fed|Bee e2f|
g2g faf|gfe def|gdB AGA|BGF G (3ABd|
gba ged|B2d def|gfe fed|Bee e2f|
g2g faf|gfe def|gdB AGA|BGF G2A||

